!!!COM: Bach, Johann Sebastian
!!!OTL: 153. Alle Menschen muessen sterben
!!!ONM: No. 153
!!!OCL: Erk
!!!SCA: BWV 262
!!!YOE: Riemenschneider, Albert
!!!OPR: 371 Harmonized Chorales and 69 Chorale Melodies with Figured Bass
!!!OPT: Bach Chorale Harmonizations
**harm	**root	**kern	**kern	**kern	**kern
!	!	!bass	!tenor	!alto	!sprno
*Iorgan	*Iorgan	*Iorgan	*Iorgan	*Iorgan	*Iorgan
*>[A,A,B]	*>[A,A,B]	*>[A,A,B]	*>[A,A,B]	*>[A,A,B]	*>[A,A,B]
*>norep[A,B]	*>norep[A,B]	*>norep[A,B]	*>norep[A,B]	*>norep[A,B]	*>norep[A,B]
*>A	*>A	*>A	*>A	*>A	*>A
*k[f#c#g#d#a#e#b#]	*k[f#c#g#d#a#e#b#]	*k[f#c#g#d#a#e#b#]	*k[f#c#g#d#a#e#b#]	*k[f#c#g#d#a#e#b#]	*k[f#c#g#d#a#e#b#]
*C#:	*C#:	*C#:	*C#:	*C#:	*C#:
*met(c)	*met(c)	*met(c)	*met(c)	*met(c)	*met(c)
*M4/4	*M4/4	*M4/4	*M4/4	*M4/4	*M4/4
*MM60	*MM60	*MM60	*MM60	*MM60	*MM60
=1-	=1-	=1-	=1-	=1-	=1-
I	4DD	4C#	4E#	4c#	4g#
vi	4BB	4AA#	8E#	4c#	4cc#
.	.	.	8F#	.	.
Ib	4DD	4EE#	4G#	4c#	4g#
IV	4GG	4FF#	8F#	4c#	4a#
.	.	.	8E#	.	.
=2	=2	=2	=2	=2	=2
V	4AA	4GG#	8D#	4c#	4.g#
.	.	.	8C#	.	.
V	4AA	4GG#	4D#	4B#	.
.	.	.	.	.	8f#
I	4DD	4CC#	4C#	4c#	4e#
I;	4DD;	4CC#;	4C#;	4c#;	4e#;
=3	=3	=3	=3	=3	=3
I	4DD	4C#	4E#	4c#	4g#
I	4DD	4C#	4E#	8c#	4g#
.	.	.	.	8B#	.
ii	4EE	4D#	4F#	8A#	4f#
.	.	.	.	8B#	.
Ib	4DD	4E#	4G#	[4c#	4e#
=4	=4	=4	=4	=4	=4
ii7b	4EE	8F#	4A#	4c#]	4.d#
.	.	8D#	.	.	.
V	4AA	8G#	8.G#	4B#	.
.	.	8GG#	.	.	8c#
.	.	.	16F#	.	.
I;	2DD;	2C#;	2E#;	2c#;	2c#;
=5:|!	=5:|!	=5:|!	=5:|!	=5:|!	=5:|!
*>B	*>B	*>B	*>B	*>B	*>B
V	4AA	4GG#	4G#	4B#	4d#
V	4AA	4GG#	4G#	4B#	4d#
I	4DD	4C#	4G#	4c#	8e#
.	.	.	.	.	8f##
iii	4FF#	8E#	4G#	4B#	4g#
.	.	8D#	.	.	.
=6	=6	=6	=6	=6	=6
!!linebreak: 2
vi7b	4BB	4C#	4A#	4e#	4.g#
V/V	4EE	4D#	4A#	8d#	.
.	.	.	.	8c#	8f##
V	4AA	2GG#;	4G#	4B#	4g#
V;	4AA;	.	4G#;	4B#;	4g#;
=7	=7	=7	=7	=7	=7
ii	2EE	2D#	4.F#	8d#	4.a#
.	.	.	.	8e#	.
.	.	.	.	4f#	.
.	.	.	8G#	.	8b#
vi	4BB	8AA#	[2A#	4e#	4cc#
.	.	8BB#	.	.	.
vib	4BB	8C#	.	4e#	4cc#
.	.	8D#	.	.	.
=8	=8	=8	=8	=8	=8
V/vi	2FF#	2E#	4A#]	4.e#	4.b#
.	.	.	4G##	.	.
.	.	.	.	8d#	8b#
vi	4BB	2AA#;	2A#;	4c#	4a#
vi;	4BB;	.	.	4c#;	4a#;
=9	=9	=9	=9	=9	=9
I	4DD	4C#	4G#	4c#	4e#
I	4DD	4C#	4G#	4c#	4e#
IV	4GG	4FF#	8F#	4c#	4a#
.	.	.	8E#	.	.
V	4AA	4GG#	4D#	4B#	4g#
=10	=10	=10	=10	=10	=10
vi7	4BB	2AA#	8C#	4c#	4g#
.	.	.	8E#	.	.
V7c/V	4EE	.	8D#	4c#	4f##
.	.	.	8C#	.	.
V;	2AA;	2GG#;	2D#;	2B#;	2g#;
=11	=11	=11	=11	=11	=11
IV	4GG	4FF#	4F#	4c#	4a#
I	4DD	4C#	4E#	8c#	4g#
.	.	.	.	8B#	.
ii	4EE	4D#	4F#	8A#	4f#
.	.	.	.	8B#	.
Ib	4DD	4E#	4G#	4c#	4e#
=12	=12	=12	=12	=12	=12
ii7b	4EE	8F#	4A#	4c#	4.d#
.	.	8D#	.	.	.
V	4AA	8G#	8.G#	4B#	.
.	.	8GG#	.	.	8c#
.	.	.	16F#	.	.
I;	2DD;	2C#;	2E#;	2c#;	2c#;
==	==	==	==	==	==
*-	*-	*-	*-	*-	*-
!!!CDT: 1685/3//-1750/7/28
!!!OCY: Deutschland
!!!AGN: chorale
!!!AST: Baroque
!!!AIN: vox
!!!YOY: 1941
!!!PPP: New York; London
!!!PPR: G. Schirmer
!!!ENC: David Huron
!!!EED: David Huron
!!!YEN: United States of America
!!!YER: 1992
!!!YEC: Copyright 1992 David Huron
!!!YEM: Rights to all derivative electronic formats reserved.
!!!YER: March 20, 1996
!!!AMT: simple quadruple
!!!EEV: 1.1
!!chor2scor: -l 2 -s 0.6 -o %b.pmx
